www/assets/icons/hourglass_top.svg

<svg xmlns="http://www.w3.org/2000/svg" width="24" height="24" viewBox="0 0 24 24" fill='currentColor'><path d="m6 2 .01 6L10 12l-3.99 4.01L6 22h12v-6l-4-4 4-3.99V2zm10 14.5V20H8v-3.5l4-4z"/></svg>

<svg width="24" height="24" viewBox="0 0 24 24" xmlns="http://www.w3.org/2000/svg" fill='currentColor'><path d="M6 2L6.01 8L10 12L6.01 16.01L6 22H18V16L14 12L18 8.01V2H6ZM16 16.5V20H8V16.5L12 12.5L16 16.5Z"/></svg>
